flaticon/sport/soccer-jersey.svg

<svg xmlns="http://www.w3.org/2000/svg" width="32" height="32" viewBox="0 0 24 24">
    <path d="M 23.9375 9.589844 L 19.9375 3.1875 C 19.898438 3.121094 19.835938 3.070312 19.765625 3.035156 L 16.710938 1.648438 L 15.367188 1.035156 C 15.253906 0.984375 15.125 0.988281 15.015625 1.042969 C 14.90625 1.101562 14.828125 1.203125 14.808594 1.324219 C 14.3125 3.941406 12.496094 4.359375 11.964844 4.421875 C 11.960938 4.425781 11.957031 4.421875 11.949219 4.421875 C 11.871094 4.433594 11.8125 4.4375 11.816406 4.4375 C 11.8125 4.4375 11.800781 4.4375 11.789062 4.433594 C 11.785156 4.433594 11.785156 4.433594 11.777344 4.433594 C 11.765625 4.433594 11.75 4.429688 11.730469 4.429688 C 11.722656 4.429688 11.710938 4.425781 11.699219 4.425781 C 11.679688 4.421875 11.660156 4.417969 11.636719 4.414062 C 11.621094 4.410156 11.605469 4.410156 11.585938 4.40625 C 11.5625 4.402344 11.535156 4.394531 11.511719 4.386719 C 11.488281 4.382812 11.46875 4.378906 11.445312 4.371094 C 11.417969 4.363281 11.386719 4.351562 11.359375 4.34375 C 11.332031 4.335938 11.308594 4.328125 11.277344 4.316406 C 11.25 4.308594 11.21875 4.292969 11.1875 4.28125 C 11.15625 4.269531 11.125 4.257812 11.089844 4.242188 C 11.058594 4.226562 11.027344 4.207031 10.992188 4.191406 C 10.960938 4.175781 10.925781 4.160156 10.890625 4.140625 C 10.855469 4.121094 10.824219 4.09375 10.789062 4.074219 C 10.753906 4.050781 10.714844 4.03125 10.679688 4.003906 C 10.644531 3.980469 10.609375 3.949219 10.574219 3.921875 C 10.539062 3.894531 10.5 3.867188 10.460938 3.835938 C 10.429688 3.804688 10.394531 3.769531 10.359375 3.734375 C 10.320312 3.699219 10.28125 3.667969 10.246094 3.625 C 10.210938 3.589844 10.175781 3.546875 10.140625 3.507812 C 10.105469 3.460938 10.070312 3.421875 10.03125 3.375 C 10 3.332031 9.964844 3.277344 9.933594 3.230469 C 9.898438 3.179688 9.863281 3.132812 9.828125 3.078125 C 9.796875 3.023438 9.765625 2.960938 9.734375 2.90625 C 9.703125 2.84375 9.667969 2.789062 9.636719 2.726562 C 9.605469 2.660156 9.574219 2.582031 9.546875 2.511719 C 9.519531 2.445312 9.488281 2.386719 9.464844 2.320312 C 9.433594 2.234375 9.40625 2.136719 9.375 2.042969 C 9.355469 1.980469 9.332031 1.921875 9.316406 1.855469 C 9.269531 1.6875 9.226562 1.511719 9.191406 1.324219 C 9.171875 1.207031 9.09375 1.101562 8.984375 1.046875 C 8.875 0.988281 8.746094 0.984375 8.632812 1.035156 L 7.289062 1.648438 L 4.234375 3.035156 C 4.164062 3.070312 4.101562 3.121094 4.0625 3.1875 L 0.0625 9.589844 C -0.0507812 9.765625 -0.0078125 9.996094 0.160156 10.121094 L 3.359375 12.519531 C 3.527344 12.648438 3.765625 12.621094 3.902344 12.460938 L 5.601562 10.480469 L 5.601562 22.601562 C 5.601562 22.820312 5.777344 23 6 23 L 18 23 C 18.222656 23 18.398438 22.820312 18.398438 22.601562 L 18.398438 10.648438 L 19.675781 12.433594 C 19.800781 12.609375 20.042969 12.652344 20.222656 12.53125 L 23.820312 10.132812 C 24.003906 10.011719 24.054688 9.773438 23.9375 9.589844 Z M 15.484375 1.96875 L 15.921875 2.167969 L 16.222656 2.304688 L 17.035156 4.597656 L 13.871094 4.597656 C 14.492188 4.136719 15.128906 3.34375 15.484375 1.96875 Z M 7.773438 2.304688 L 8.515625 1.96875 C 8.566406 2.15625 8.621094 2.328125 8.675781 2.496094 C 8.695312 2.550781 8.71875 2.601562 8.738281 2.65625 C 8.78125 2.761719 8.820312 2.867188 8.867188 2.964844 C 8.890625 3.023438 8.917969 3.078125 8.945312 3.132812 C 8.988281 3.21875 9.03125 3.300781 9.078125 3.378906 C 9.105469 3.429688 9.136719 3.480469 9.167969 3.53125 C 9.214844 3.605469 9.257812 3.671875 9.304688 3.738281 C 9.339844 3.785156 9.371094 3.832031 9.402344 3.875 C 9.453125 3.9375 9.503906 3.996094 9.554688 4.054688 C 9.585938 4.09375 9.617188 4.128906 9.648438 4.164062 C 9.707031 4.230469 9.769531 4.289062 9.832031 4.34375 C 9.859375 4.371094 9.886719 4.398438 9.914062 4.421875 C 9.984375 4.488281 10.058594 4.546875 10.132812 4.601562 L 6.964844 4.601562 Z M 17.601562 22.199219 L 6.398438 22.199219 L 6.398438 21 L 17.601562 21 Z M 17.601562 20.199219 L 6.398438 20.199219 L 6.398438 19.800781 L 17.601562 19.800781 Z M 20.101562 11.652344 L 18.324219 9.167969 C 18.222656 9.027344 18.042969 8.964844 17.878906 9.019531 C 17.710938 9.074219 17.601562 9.226562 17.601562 9.398438 L 17.601562 19 L 6.398438 19 L 6.398438 9.398438 C 6.398438 9.230469 6.296875 9.082031 6.140625 9.023438 C 5.980469 8.964844 5.804688 9.011719 5.695312 9.140625 L 3.539062 11.65625 L 0.933594 9.699219 L 4.675781 3.714844 L 6.765625 2.765625 L 6.023438 4.867188 C 5.980469 4.988281 5.996094 5.125 6.074219 5.230469 C 6.148438 5.335938 6.269531 5.398438 6.398438 5.398438 L 17.601562 5.398438 C 17.730469 5.398438 17.851562 5.335938 17.925781 5.230469 C 18 5.125 18.019531 4.988281 17.976562 4.867188 L 17.234375 2.765625 L 19.324219 3.714844 L 23.054688 9.683594 Z M 20.101562 11.652344"/>
    <path d="M 14.800781 10.398438 C 14.800781 9.1875 13.8125 8.199219 12.601562 8.199219 L 11.398438 8.199219 C 10.1875 8.199219 9.199219 9.1875 9.199219 10.398438 C 9.199219 11.144531 9.574219 11.800781 10.140625 12.199219 C 9.570312 12.597656 9.199219 13.257812 9.199219 14 C 9.199219 15.210938 10.1875 16.199219 11.398438 16.199219 L 12.601562 16.199219 C 13.8125 16.199219 14.800781 15.210938 14.800781 14 C 14.800781 13.257812 14.425781 12.597656 13.859375 12.199219 C 14.425781 11.800781 14.800781 11.144531 14.800781 10.398438 Z M 14 14 C 14 14.773438 13.371094 15.398438 12.601562 15.398438 L 11.398438 15.398438 C 10.628906 15.398438 10 14.773438 10 14 C 10 13.226562 10.628906 12.601562 11.398438 12.601562 L 12.601562 12.601562 C 13.371094 12.601562 14 13.226562 14 14 Z M 12.601562 11.800781 L 11.398438 11.800781 C 10.628906 11.800781 10 11.171875 10 10.398438 C 10 9.628906 10.628906 9 11.398438 9 L 12.601562 9 C 13.371094 9 14 9.628906 14 10.398438 C 14 11.171875 13.371094 11.800781 12.601562 11.800781 Z M 12.601562 11.800781"/>
</svg>

<svg xmlns="http://www.w3.org/2000/svg" width="32" height="32" viewBox="0 0 24 24">
    <path d="M23.938 9.59l-4-6.402a.407.407 0 0 0-.172-.153L16.71 1.648l-1.344-.613a.41.41 0 0 0-.351.008.392.392 0 0 0-.207.281c-.496 2.617-2.313 3.035-2.844 3.098-.004.004-.008 0-.016 0-.078.012-.136.016-.133.016-.004 0-.015 0-.027-.004h-.012c-.011 0-.027-.004-.047-.004-.007 0-.02-.004-.03-.004a1.871 1.871 0 0 0-.063-.012c-.016-.004-.032-.004-.051-.008a.52.52 0 0 1-.074-.02.409.409 0 0 1-.067-.015c-.027-.008-.058-.02-.086-.027a1.007 1.007 0 0 1-.082-.028c-.027-.007-.058-.023-.09-.035-.03-.011-.062-.023-.097-.039-.031-.015-.063-.035-.098-.05-.031-.016-.066-.032-.101-.051-.036-.02-.067-.047-.102-.067-.035-.023-.074-.043-.11-.07-.034-.024-.07-.055-.105-.082-.035-.027-.074-.055-.113-.086l-.102-.102c-.039-.035-.078-.066-.113-.109-.035-.035-.07-.078-.105-.117-.036-.047-.07-.086-.11-.133-.031-.043-.066-.098-.097-.145-.036-.05-.07-.097-.106-.152-.031-.055-.062-.117-.094-.172-.03-.062-.066-.117-.097-.18a3.538 3.538 0 0 1-.09-.214c-.027-.067-.059-.125-.082-.192-.031-.086-.059-.183-.09-.277-.02-.063-.043-.121-.059-.188a6.252 6.252 0 0 1-.125-.53.386.386 0 0 0-.207-.278.397.397 0 0 0-.351-.012l-1.344.613-3.055 1.387a.407.407 0 0 0-.171.152l-4 6.403a.394.394 0 0 0 .097.531l3.2 2.399a.396.396 0 0 0 .542-.06l1.7-1.98v12.122c0 .218.175.398.398.398h12c.223 0 .398-.18.398-.398V10.648l1.278 1.786a.397.397 0 0 0 .547.097l3.597-2.398a.392.392 0 0 0 .117-.543zm-8.454-7.621l.438.199.3.137.813 2.293h-3.164c.621-.461 1.258-1.254 1.613-2.63zm-7.71.336l.742-.336c.05.187.105.36.16.527.02.055.043.106.062.16.043.106.082.211.13.309.023.058.05.113.077.168.043.086.086.168.133.246.027.05.059.101.09.152.047.074.09.14.137.207.035.047.066.094.097.137.051.063.102.121.153.18.03.039.062.074.093.11.059.065.122.124.184.179a2.318 2.318 0 0 0 .3.258H6.966zm9.828 19.894H6.398V21h11.204zm0-2H6.398v-.398h11.204zm2.5-8.547l-1.778-2.484a.397.397 0 1 0-.723.23V19H6.399V9.398a.398.398 0 0 0-.703-.257L3.54 11.656.934 9.7l3.742-5.984 2.09-.95-.743 2.102a.396.396 0 0 0 .375.531h11.204a.396.396 0 0 0 .375-.53l-.743-2.102 2.09.949 3.73 5.969zm0 0"/>
    <path d="M14.8 10.398c0-1.21-.988-2.199-2.198-2.199h-1.204c-1.21 0-2.199.989-2.199 2.2a2.2 2.2 0 0 0 .942 1.8A2.195 2.195 0 0 0 9.199 14c0 1.21.989 2.2 2.2 2.2h1.203c1.21 0 2.199-.99 2.199-2.2 0-.742-.375-1.402-.942-1.8a2.2 2.2 0 0 0 .942-1.802zM14 14a1.4 1.4 0 0 1-1.398 1.398h-1.204a1.4 1.4 0 0 1 0-2.796h1.204A1.4 1.4 0 0 1 14 14zm-1.398-2.2h-1.204c-.77 0-1.398-.628-1.398-1.402C10 9.628 10.629 9 11.398 9h1.204c.77 0 1.398.629 1.398 1.398 0 .774-.629 1.403-1.398 1.403zm0 0"/>
</svg>
